X:94
T:Spring Fever
C:Bob Pasquarello
M:6/8
K:Em
"Em"BcB "D"ABA|"C"GAG "Bm"FGF|"Em"E2FG2A|B2AG2A|
"Em"BcB "D"ABA|"C"GAG "Bm"FGF|"C"EFG "D"AGF|"G"G3"B7/D7"A3:|
|:"G"Bd2d3|Bd2d3|"C"c2B "Am"A2G|"G"B2G "Em"E2 D|
"G"Bd2d3|Bd2d3|1"C"e2d "A"^cde|"D"d3 =c3:|2"C"cBA"D" DEF|"G" G3-G3|]
